svg/misc/basket-fill.svg

<?xml version="1.0" encoding="UTF-8"?>
<svg xmlns="http://www.w3.org/2000/svg" xmlns:xlink="http://www.w3.org/1999/xlink" width="24" height="24" viewBox="0 0 24 24" version="1.1">
<defs>
<clipPath id="clip1">
  <path d="M 0.921875 0 L 22.703125 0 L 22.703125 24 L 0.921875 24 Z M 0.921875 0 "/>
</clipPath>
</defs>
<g id="surface1">
<g clip-path="url(#clip1)" clip-rule="nonzero">
<path style=" stroke:none;fill-rule:nonzero;fill:rgb(0%,0%,0%);fill-opacity:1;" d="M 4.140625 24 C 2.363281 23.996094 0.921875 22.5625 0.925781 20.789062 L 0.925781 5.351562 L 6.292969 5.351562 C 6.371094 2.367188 8.820312 -0.00390625 11.808594 -0.00390625 C 14.800781 -0.00390625 17.246094 2.367188 17.324219 5.351562 L 22.707031 5.351562 L 22.707031 20.789062 C 22.703125 22.5625 21.261719 23.996094 19.480469 24 Z M 8.128906 5.351562 L 15.492188 5.351562 C 15.417969 3.378906 13.792969 1.820312 11.8125 1.820312 C 9.832031 1.820312 8.207031 3.378906 8.128906 5.351562 Z M 8.128906 5.351562 "/>
</g>
</g>
</svg>

<?xml version="1.0" encoding="UTF-8"?>
<svg xmlns="http://www.w3.org/2000/svg" viewBox="0 0 24 24">
    <defs>
        <style>
            .a {
            stroke:none;
            fill-rule:nonzero;
            fill:currentColor;
            fill-opacity:1;
            }
        </style>
    </defs>
    <path class="a"
          d="M4.14 24a3.212 3.212 0 0 1-3.214-3.21V5.351h5.367C6.371 2.367 8.82-.004 11.809-.004a5.505 5.505 0 0 1 5.515 5.356h5.383v15.437A3.224 3.224 0 0 1 19.48 24ZM8.13 5.352h7.363a3.675 3.675 0 0 0-3.68-3.532A3.681 3.681 0 0 0 8.13 5.352Zm0 0"/>
</svg>
